X:201
T:Lady Murray's Delight,The. (p)1670.PLFD.201
M:6/4
L:1/4
Q:3/4=50
S:Playford, Dancing Master,4th Ed.,1670.
O:England
N:Looks  like it might need barring as a minuet.
H:1670.
Z:Chris Partington
K:C
GGGBGG|B>AB/c/BGG|c>de/d/BGE|DD/E/F/G/ECC:|
|:dddedd|e>de/f/edd|ee/f/gBB/c/d|AA/B/c/d/BGG:|
